!!!Genre:	Bulgar
!!!Mode:	Major
!!!Edition:	2015
!!!Listening/dance:	dance
!!!Free rhythm?:	No
!!!Secondary Modes:	All major
!!!One_Mode:	yes
**kern
*I"P1
*clefG2
*k[f#]
*G:
*M2/4
*>A
=1
8dL
16bL
16bJJ
8bL
8bJ
=2
8bL
8aJ
4g
=3
8.ccL
16bJk
8.ccL
16bJk
=4
8ccL
8bJ
4a
=5
8aL
8b
8cc
8ddJ
=6
8bL
8g
8a
8f#J
=7
4g
4b
=8
2dd
=9:|!
2g
=10
4g
4r
=11!|:
*>B
4g
8bL
8ddJ
=12
4g
8bL
8ddJ
=13
8.ccL
16bJk
12ccL
12b
12aJ
=14
8aL
8bJ
4b
=15
4g
8bL
8ddJ
=16
4g
8bL
8ddJ
=17
8.ccL
16bJk
12ccL
12b
12aJ
=18
4g
4r
=19:|!|:
*>C
(8bL
8cc)
8cc
8ccJ
=20
8.ccL
16bJk
12ccL
12b
12aJ
=21
2a
=22
2a
=23
8aL
8b
8cc
8ddJ
=24
8bL
8g
8a
8f#J
=25
4g
4b
=26
2dd
=27:|!
2g
=28
4g
4r
==
*-
